!!!OTL: Das hungernde Kind 'Vater, Vater, Brot will ich!
!!!ARE: Europa, Osteuropa, UdSSR, Bessarabien
!!!YOR: 5, S. 281
!!    ????
!!!SCT: Q0115E
!!!YEM: Copyright 1995, estate of Helmut Schaffrath.
**kern
*ICvox
*Ivox
*M4/4
*k[f#]
*G:
=1
{4g
4g
4dd
4dd
=2
4ee
4ee
4dd
4r}
=3
{4.cc
8dd
4b
4g
=4
4a
4a
4g
4r}
=5
{4g
4g
4dd
4dd
=6
4ee
4ee
4dd
4r}
=7
{4.cc
8dd
4b
4g
=8
2a
4g
4r}
==
!!!AGN: Ballade, Hunger, Tod
!!!ONB: ESAC (Essen Associative Code) Database: BALLADE
!!!AMT: simple quadruple
!!!AIN: vox
!!!EED: Helmut Schaffrath
!!!EEV: 1.0
*-
